X: 1483
T: Andrew Carr
R: slip jig
M: 9/8
K: Dmajor
|:d2 B AFA AFA|d2 d def g2 e|d2 B AFA AFA|d2 D DEF E2 D:|
|:F2 A ABA ABA|G2 B BdB BdB|F2 A ABA ABA|d2 D DEF E2 D:|

